svg/smoke_detector.svg

<svg width="24" height="24" viewBox="0 0 24 24"  xmlns="http://www.w3.org/2000/svg">
<path fill-rule="evenodd" clip-rule="evenodd" d="M20 4H4V6H20V4ZM2 2V6C2 7.10457 2.89543 8 4 8H20C21.1046 8 22 7.10457 22 6V2H2Z" />
<path fill-rule="evenodd" clip-rule="evenodd" d="M4 6L5.08046 13.2931C5.22574 14.2738 6.0675 15 7.05886 15H16.9411C17.9325 15 18.7743 14.2738 18.9195 13.2931L20 6H4ZM6.31812 8L7.05886 13H16.9411L17.6819 8H6.31812Z" />
<path d="M8.5 9H10L10.5 12H9L8.5 9Z" />
<path fill-rule="evenodd" clip-rule="evenodd" d="M8.4932 16C8.4934 15.9998 8.49361 15.9997 9.0002 16.6188C9.50679 17.238 9.50698 17.2378 9.50717 17.2377L9.50819 17.2369L9.51009 17.2353C9.5098 17.2355 9.50989 17.2354 9.50925 17.236C9.50647 17.2384 9.49989 17.244 9.49112 17.2519C9.4735 17.2677 9.44516 17.2939 9.40963 17.3294C9.33778 17.4013 9.24108 17.5068 9.14532 17.6374C8.94415 17.9117 8.8002 18.2232 8.8002 18.5279C8.8002 18.7868 8.89304 18.9381 9.14532 19.2821C9.15214 19.2914 9.15908 19.3009 9.16613 19.3104C9.41515 19.6494 9.8002 20.1734 9.8002 20.9825C9.8002 21.7902 9.42629 22.3834 9.08992 22.7503C8.92113 22.9345 8.75358 23.0715 8.62698 23.1636C8.56313 23.21 8.50811 23.2461 8.46637 23.2722C8.44545 23.2852 8.42773 23.2958 8.41374 23.3039L8.39556 23.3143L8.38866 23.3182L8.38578 23.3198L8.38448 23.3205C8.38418 23.3207 8.38328 23.3212 8.0002 22.6188C7.61711 21.9165 7.61683 21.9167 7.61655 21.9168L7.61498 21.9177L7.61318 21.9187L7.61056 21.9201C7.60952 21.9207 7.60901 21.921 7.60901 21.921L7.61996 21.9144C7.63291 21.9063 7.65601 21.8913 7.68591 21.8696C7.74681 21.8253 7.82926 21.7578 7.91047 21.6692C8.0741 21.4907 8.2002 21.2656 8.2002 20.9825C8.2002 20.7236 8.10735 20.5723 7.85507 20.2283C7.84825 20.219 7.84131 20.2096 7.83426 20.2C7.58524 19.8611 7.2002 19.337 7.2002 18.5279C7.2002 17.7418 7.55624 17.0987 7.85507 16.6912C8.00931 16.4809 8.16261 16.3137 8.27826 16.198C8.33649 16.1398 8.38626 16.0936 8.42334 16.0603C8.44191 16.0437 8.45738 16.0302 8.46924 16.0201L8.48429 16.0074L8.48969 16.0029L8.49184 16.0011L8.4932 16Z" />
<path fill-rule="evenodd" clip-rule="evenodd" d="M12.4932 16C12.4934 15.9998 12.4936 15.9997 13.0002 16.6188C13.5068 17.238 13.507 17.2378 13.5072 17.2377L13.5082 17.2369L13.5101 17.2353C13.5098 17.2355 13.5099 17.2354 13.5093 17.236C13.5065 17.2384 13.4999 17.244 13.4911 17.2519C13.4735 17.2677 13.4452 17.2939 13.4096 17.3294C13.3378 17.4013 13.2411 17.5068 13.1453 17.6374C12.9442 17.9117 12.8002 18.2232 12.8002 18.5279C12.8002 18.7868 12.893 18.9381 13.1453 19.2821C13.1521 19.2914 13.1591 19.3009 13.1661 19.3104C13.4151 19.6494 13.8002 20.1734 13.8002 20.9825C13.8002 21.7902 13.4263 22.3834 13.0899 22.7503C12.9211 22.9345 12.7536 23.0715 12.627 23.1636C12.5631 23.21 12.5081 23.2461 12.4664 23.2722C12.4455 23.2852 12.4277 23.2958 12.4137 23.3039L12.3956 23.3143L12.3887 23.3182L12.3858 23.3198L12.3845 23.3205C12.3842 23.3207 12.3833 23.3212 12.0002 22.6188C11.6171 21.9165 11.6168 21.9167 11.6165 21.9168L11.615 21.9177L11.6132 21.9187L11.6106 21.9201C11.6095 21.9207 11.609 21.921 11.609 21.921L11.62 21.9144C11.6329 21.9063 11.656 21.8913 11.6859 21.8696C11.7468 21.8253 11.8293 21.7578 11.9105 21.6692C12.0741 21.4907 12.2002 21.2656 12.2002 20.9825C12.2002 20.7236 12.1074 20.5723 11.8551 20.2283C11.8483 20.219 11.8413 20.2096 11.8343 20.2C11.5852 19.8611 11.2002 19.337 11.2002 18.5279C11.2002 17.7418 11.5562 17.0987 11.8551 16.6912C12.0093 16.4809 12.1626 16.3137 12.2783 16.198C12.3365 16.1398 12.3863 16.0936 12.4233 16.0603C12.4419 16.0437 12.4574 16.0302 12.4692 16.0201L12.4843 16.0074L12.4897 16.0029L12.4918 16.0011L12.4932 16Z" />
<path fill-rule="evenodd" clip-rule="evenodd" d="M16.4932 16C16.4934 15.9998 16.4936 15.9997 17.0002 16.6188C17.5068 17.238 17.507 17.2378 17.5072 17.2377L17.5082 17.2369L17.5101 17.2353C17.5098 17.2355 17.5099 17.2354 17.5093 17.236C17.5065 17.2384 17.4999 17.244 17.4911 17.2519C17.4735 17.2677 17.4452 17.2939 17.4096 17.3294C17.3378 17.4013 17.2411 17.5068 17.1453 17.6374C16.9442 17.9117 16.8002 18.2232 16.8002 18.5279C16.8002 18.7868 16.893 18.9381 17.1453 19.2821C17.1521 19.2914 17.1591 19.3009 17.1661 19.3104C17.4151 19.6494 17.8002 20.1734 17.8002 20.9825C17.8002 21.7902 17.4263 22.3834 17.0899 22.7503C16.9211 22.9345 16.7536 23.0715 16.627 23.1636C16.5631 23.21 16.5081 23.2461 16.4664 23.2722C16.4455 23.2852 16.4277 23.2958 16.4137 23.3039L16.3956 23.3143L16.3887 23.3182L16.3858 23.3198L16.3845 23.3205C16.3842 23.3207 16.3833 23.3212 16.0002 22.6188C15.6171 21.9165 15.6168 21.9167 15.6165 21.9168L15.615 21.9177L15.6132 21.9187L15.6106 21.9201C15.6095 21.9207 15.609 21.921 15.609 21.921L15.62 21.9144C15.6329 21.9063 15.656 21.8913 15.6859 21.8696C15.7468 21.8253 15.8293 21.7578 15.9105 21.6692C16.0741 21.4907 16.2002 21.2656 16.2002 20.9825C16.2002 20.7236 16.1074 20.5723 15.8551 20.2283C15.8483 20.219 15.8413 20.2096 15.8343 20.2C15.5852 19.8611 15.2002 19.337 15.2002 18.5279C15.2002 17.7418 15.5562 17.0987 15.8551 16.6912C16.0093 16.4809 16.1626 16.3137 16.2783 16.198C16.3365 16.1398 16.3863 16.0936 16.4233 16.0603C16.4419 16.0437 16.4574 16.0302 16.4692 16.0201L16.4843 16.0074L16.4897 16.0029L16.4918 16.0011L16.4932 16Z" />
</svg>

<svg width="24" height="24" viewBox="0 0 24 24" xmlns="http://www.w3.org/2000/svg"><path fill-rule="evenodd" clip-rule="evenodd" d="M20 4H4v2h16V4zM2 2v4a2 2 0 0 0 2 2h16a2 2 0 0 0 2-2V2H2z"/><path fill-rule="evenodd" clip-rule="evenodd" d="M4 6l1.08 7.293A2 2 0 0 0 7.06 15h9.882a2 2 0 0 0 1.979-1.707L20 6H4zm2.318 2l.74 5h9.883l.74-5H6.319z"/><path d="M8.5 9H10l.5 3H9l-.5-3z"/><path fill-rule="evenodd" clip-rule="evenodd" d="M8.493 16l.507.619.507.619.001-.001.002-.002v.001c-.004.002-.01.008-.019.016a2.704 2.704 0 0 0-.346.386c-.2.274-.345.585-.345.89 0 .259.093.41.345.754l.021.028c.25.34.634.863.634 1.673 0 .807-.374 1.4-.71 1.767a3.13 3.13 0 0 1-.676.554l-.018.01-.007.004-.003.002h-.002L8 22.62l-.383-.702h-.002l-.002.002-.002.001-.002.001.011-.007.066-.044a1.53 1.53 0 0 0 .224-.2c.164-.18.29-.404.29-.688 0-.258-.093-.41-.345-.754l-.02-.028c-.25-.339-.635-.863-.635-1.672 0-.786.356-1.43.655-1.837a4.308 4.308 0 0 1 .614-.67l.015-.014.006-.004.002-.002.001-.001zM12.493 16l.507.619.507.619.001-.001.002-.002v.001l-.019.016a2.713 2.713 0 0 0-.346.386c-.2.274-.345.585-.345.89 0 .259.093.41.345.754l.021.028c.25.34.634.863.634 1.673 0 .807-.374 1.4-.71 1.767a3.13 3.13 0 0 1-.676.554l-.018.01-.007.004-.003.002h-.002L12 22.62l-.383-.702h-.002l-.002.002-.002.001-.002.001.011-.007a1.53 1.53 0 0 0 .29-.245c.164-.178.29-.403.29-.686 0-.26-.093-.41-.345-.755l-.02-.028c-.25-.339-.635-.863-.635-1.672 0-.786.356-1.43.655-1.837a4.299 4.299 0 0 1 .614-.67l.015-.014.006-.004.002-.002.001-.001zM16.493 16l.507.619.507.619.001-.001.002-.002v.001c-.004.002-.01.008-.019.016a2.713 2.713 0 0 0-.346.386c-.2.274-.345.585-.345.89 0 .259.093.41.345.754l.021.028c.25.34.634.863.634 1.673 0 .807-.374 1.4-.71 1.767a3.13 3.13 0 0 1-.676.554l-.018.01-.007.004-.003.002h-.002L16 22.62l-.383-.702h-.002l-.002.002-.002.001-.002.001.011-.007a1.53 1.53 0 0 0 .29-.245c.164-.178.29-.403.29-.686 0-.26-.093-.41-.345-.755l-.02-.028c-.25-.339-.635-.863-.635-1.672 0-.786.356-1.43.655-1.837a4.299 4.299 0 0 1 .614-.67l.015-.014.006-.004.002-.002.001-.001z"/></svg>
